!! Dmitri Kabalevsky, From Five Sets of Variations, Opus 51 (for piano)
!! "Five Happy Variations on a Russian Folksong"
!! Variation 3
!! Allegro
!! Tempo: quarter-note equals 144-160 beats per minute.
**kern	**kern
*M2/4	*M2/4
*F:	*F:
*M2/4	*M2/4
=1	=1
4F	4a
4F	4a
=2	=2
{8E	{8g
8G}	8b-}
8F'	8a'
8E'	8g'
=3	=3
8D'	8f'
8C'	8e'
8D'	8f'
8E'	8g'
=4	=4
4F	4a
4F	4a
=5	=5
{8E	{8g
8G}	8b-}
8F'	8a'
8E'	8g'
=6	=6
8D'	8f'
8C'	8e'
8D'	8f'
8E'	8g'
=7	=7
4F'	4a'
4d'	4ff'
=8	=8
4F'	4a'
4c'	4ee'
=9	=9
4B-'	4dd'
4B-'	4dd'
=10	=10
4A'	4cc'
4A'	4cc'
=11	=11
{8G	{8b-
8F}	8a}
8E'	8g'
8F'	8a'
=12	=12
{8G	{8b-
8F}	8a}
8E'	8g'
8D'	8f'
=13	=13
{4C#	{4e
8AA}	8a}
8r	8r
=14	=14
4D'	4f'
4AA'	4f'
=15	=15
4E'	{8g
.	8b-}
4AA	8a'
.	8g'
=16	=16
4D'	4f'
4AA'	4f'
=17	=17
4E'	{8g
.	8b-}
4AA'	8a'
.	8g'
=18	=18
4D'	4f'
4AA'	4f'
=19	=19
4E'	4e'
4AA'	4e'
=20	=20
4F'	2d
4E'	.
=21	=21
4D	4d
4r	4r
==	==
*-	*-
